!!!COM: Beethoven, Ludwig van
!!!CDT: 1770///-1827///
!!!OTL: Piano Sonata no. 13 in E-flat major
!!!OTP: quasi una fantasia
!!!OPS: 27
!!!ONM: 1
!!!OMV: 1
!!!OMD: Andante
**kern	**kern	**dynam
*Ipiano	*Ipiano	*Ipiano
*staff2	*staff1	*staff1
*>[A,A,B,B1,B,B2,C,C1,C,C2,D,E,E,F]	*>[A,A,B,B1,B,B2,C,C1,C,C2,D,E,E,F]	*>[A,A,B,B1,B,B2,C,C1,C,C2,D,E,E,F]
*>norep[A,B,B2,C,C2,D,E,F]	*>norep[A,B,B2,C,C2,D,E,F]	*>norep[A,B,B2,C,C2,D,E,F]
*>A	*>A	*>A
*clefF4	*clefG2	*clefG2
*k[b-e-a-]	*k[b-e-a-]	*k[b-e-a-]
*E-:	*E-:	*E-:
*M4/4	*M4/4	*M4/4
*MM100	*MM100	*MM100
=1-	=1-	=1-
2r	(4B-'/ 4g'/ 4b-'/	pp
.	4B-'/) 4g'/ 4b-'/	.
16r	2B-/ 2e-/ 2g/	.
(16BB-\LL	.	.
16C\	.	.
16D\JJ	.	.
16E-\LL	.	.
16F\	.	.
16G\	.	.
16E-\JJ)	.	.
=2	=2	=2
8A-'\	(4B-'/ 4d'/ 4f'/	.
8r	.	.
4r	4B-'/) 4d'/ 4f'/	.
(16A-\LL	2B-/ 2f/ 2a-/ 2b-/	.
16G\	.	.
16F\	.	.
16E-\JJ	.	.
16D\LL	.	.
16C\	.	.
16BB-\	.	.
16D\JJ)	.	.
=3	=3	=3
8E-'\	(4B-'/ 4g'/ 4b-'/	.
8r	.	.
4r	4B-'/) 4g'/ 4b-'/	.
16r	2B-/ 2e-/ 2g/	.
(16BB-\LL	.	.
16C\	.	.
16D\JJ	.	.
16E-\LL	.	.
16F\	.	.
16G\	.	.
16E-\JJ)	.	.
=4	=4	=4
(16A-\LL	8B-/ 8d/ 8f/	.
16F\)	.	.
16D\	4b-^/	.
16BB-\JJ	.	.
16AA-'/LL	.	.
16FF'/	.	.
16DD'/	8A-/ 8b-/	.
16BBB-'/JJ	.	.
(4EE-/	4G/ 4e-/	.
8E-\)	4r	.
8r	.	.
=5:|!|:	=5:|!|:	=5:|!|:
*>B	*>B	*>B
2r	(4f'/ 4a-'/	pp
.	4f'/) 4a-'/	.
16r	2f/ 2a-/ 2dd/	.
16BBB-'/LL	.	.
16BB-'/	.	.
16C'/JJ	.	.
16D'\LL	.	.
16E-'\	.	.
16F\	.	.
16G'\JJ	.	.
=6	=6	=6
(8An\	(4f'/ 4dd'/	<
[4.B-\)	.	.
.	4f'/) 4dd'/	.
16B-\]	2f/ 2a-/ 2dd/ 2ff/	.
16BBB-'/LL	.	.
16BB-'/	.	.
16C'/JJ	.	.
16D'\LL	.	.
16E-'\	.	.
16F'\	.	.
16G'\JJ	.	.
=7	=7	=7
*	*^	*
(8An\	2r	4f'\ 4dd'\ (4ff'\	.
[4.B-\)	.	.	.
.	.	4f'\ 4dd'\ 4ff'\)	.
8B-\L]	(4.aa-/	4dd\ 4ff\	.
(8Bn\	.	.	.
8c\	.	8ee-\L	.
8G\J)	8gg/)	8bn\J	.
*	*v	*v	*
=8	=8	=8
*>B1	*>B1	*>B1
*	*^	*
*^	*	*	*
4r	(8A-\L	(8gg/L	8cc\L	>
.	8An\	8ff/	8cc\	.
4B-/	(8B-\)	8ee-/	8g\	.
.	8BB-\J	8dd/J	8f\ 8a-\J	.
(8B-/L)	4.E-\	4ff/	4a-\	p
8d/	.	.	.	.
8e-/J)	.	8ee-/)	8g\	.
8r	8r	8r	8r	.
*v	*v	*	*	*
*	*v	*v	*
=9:|!	=9:|!	=9:|!
*>B2	*>B2	*>B2
*	*^	*
*^	*	*	*
4r	(8A-\L	(8gg/L	8cc\L	>
.	8An\	8ff/	8cc\	.
4B-'/	(8B-'\)	8ee-/	8g\	.
.	8BB-\J	8dd/J	8f\ 8a-\J	.
(8B-/L)	4.E-\	4ff/	4a-\	p
8d/	.	.	.	.
8e-/J)	.	8ee-/)	8g\	.
8r	8r	8B-/	8r	.
*v	*v	*	*	*
*	*v	*v	*
=10!|:	=10!|:	=10!|:
*>C	*>C	*>C
*	*^	*
8EE-/ 8BB-/ 8E-/L	(4g'/	8G\ 8B-\ 8e-\L	pp
8EE-/ 8BB-/ 8E-/	.	8G\ 8B-\ 8e-\	.
8EE-/ 8BB-/ 8E-/	4g'/	8G\ 8B-\ 8e-\	.
8EE-/ 8BB-/ 8E-/J	.	8G\ 8B-\ 8e-\J)	.
8EE-/ 8BB-/ 8E-/L	(4.g/	8G\ 8B-\ 8e-\L	.
8EE-/ 8BB-/ 8E-/	.	8G\ 8B-\ 8e-\	.
8EE-/ 8BB-/ 8E-/	.	8G\ 8B-\ 8e-\	.
8EE-/ 8BB-/ 8E-/J	8f/)	8e-\J	.
=11	=11	=11	=11
8EE-/ 8BB-/ 8E-/L	8e-/L	8G\ (8e-\L	.
8EE-/ 8BB-/ 8E-/	8f/	8G\ 8e-\	.
8EE-/ 8BB-/ 8E-/	8g/	8G\ 8e-\	.
8EE-/ 8BB-/ 8E-/J	8a-/J)	8G\ 8e-\J	.
8EE-/ 8BB-/ 8E-/L	(4an/	8G\ 8e-\L	.
8EE-/ 8BB-/ 8E-/	.	8G\ 8e-\	.
8EE-/ 8BB-/ 8E-/	8b-/)	8G\ 8e-\	.
8EE-/ 8BB-/ 8E-/J	8r	8G\ 8e-\J	.
=12	=12	=12	=12
8FF/ 8BB-/ 8D/L	(4b-'/	8A-\ 8d\L	.
8FF/ 8BB-/ 8D/	.	8A-\ 8d\	.
8FF/ 8BB-/ 8D/	4b-'/)	8A-\ 8d\	.
8FF/ 8BB-/ 8D/J	.	8A-\ 8d\J	.
8FF/ 8BB-/ 8D/L	(4.b-/	8A-\ 8d\L	.
8FF/ 8BB-/ 8D/	.	8A-\ 8d\	.
8FF/ 8BB-/ 8D/	.	8A-\ 8d\	.
8FF/ 8BB-/ 8D/J	8a-/)	8A-\ 8d\J	.
*	*v	*v	*
=13	=13	=13
*>C1	*>C1	*>C1
*	*^	*
8BBB-/ 8BB-/L	(8g/L	8A-\ 8d\L	.
8BBB-/ 8BB-/	8f/	8A-\ 8d\	.
8BBB-/ 8BB-/	8a-/	8A-\ 8d\	.
8BBB-/ 8BB-/J	8d/J	8A-\J	.
8EE-/ 8BB-/L	4f/	8G\L	.
8EE-/ 8BB-/	.	8G\	.
8EE-/ 8BB-/	8e-/)	8G\	.
8EE-/ 8BB-/J	8B-/	8G\J	.
*	*v	*v	*
=14:|!	=14:|!	=14:|!
*>C2	*>C2	*>C2
*	*^	*
8BBB-/ 8BB-/L	(8g/L	8A-\ 8d\L	.
8BBB-/ 8BB-/	8f/	8A-\ 8d\	.
8BBB-/ 8BB-/	8a-/	8A-\ 8d\	.
8BBB-/ 8BB-/J	8d/J	8A-\J	.
8EE-/ 8BB-/L	4f/	8G\L	.
8EE-/ 8BB-/	.	8G\	.
8EE-/ 8BB-/J	8e-/L)	8G\J	.
8r	8g/J	8r	.
*	*v	*v	*
=15	=15	=15
*>D	*>D	*>D
4C'\ 4En'\ 4G'\ (4c'\	4en'\ 4g'\ 4cc'\ (4een'\	pp
4C'\ 4E'\ 4G'\ 4c'\)	4e'\ 4g'\ 4cc'\ 4ee'\)	.
4.C\ 4.E\ 4.G\ 4.c\	4.e\ 4.g\ 4.cc\ 4.ee\	.
8c'\	8e'\ 8cc'\	.
=16	=16	=16
8Bn'\ (8c'\L	8f'\ (8dd'\L	<
8B-'\ 8c'\	8g'\ 8cc'\ 8een'\	.
8A-'\ 8c'\	8a-'\ 8cc'\ 8ff'\	.
8En'\ 8c'\J)	8b-'\ 8cc'\ 8gg'\J)	.
4.F\ 4.c\	2a-\ 2cc\ [2aa-\	.
(8EEn/	.	.
=17	=17	=17
*	*^	*
8FF/L	2r	8aa-\L]	.
8GG/	.	16aa-\L	.
.	.	16gg\JJ	.
8AA-/	.	16ff\LL	.
.	.	16ee-\	.
8AAn/J)	.	16dd\	.
.	.	16cc\JJ	.
2BB-/	[2b-/	8r	>
.	.	16a-'\LL	.
.	.	16g\JJ	.
.	.	16f\LL	.
.	.	16e-\	.
.	.	16d\	.
.	.	16c\JJ	.
=18	=18	=18	=18
*^	*	*	*
16BB-/LL	(4BB-\	(8b-/L]	4B-\	p
16C/	.	.	.	.
16D/	.	8an/	.	.
16E-/JJ	.	.	.	.
16F/LL	4BB-\	8a-/	4d\	.
16G/	.	.	.	.
16A-/	.	8f/J	.	.
16F/JJ	.	.	.	.
4G/)	4E-\	4e-/	4e-\)	.
8EE-/	4r	8r	4r	.
8r	.	8g/	.	pp
*v	*v	*	*	*
*	*v	*v	*
=19	=19	=19
4C'\ 4En'\ 4G'\ (4c'\	4en'\ 4g'\ 4cc'\ (4een'\	.
4C'\ 4E'\ 4G'\ 4c'\)	4e'\ 4g'\ 4cc'\ 4ee'\)	.
4.C\ 4.E\ 4.G\ 4.c\	4.e\ 4.g\ 4.cc\ 4.ee\	.
8c\	8cc\	<
=20	=20	=20
8Bn\ 8c\L	8dd'\L	.
8B-\ 8c\	(8een\	.
8A-\ 8c\	8ff'\)	.
8En\ 8c\J	(8gg\J	.
4.F\ 4.c\	[2aa-\)	.
(8EEn/	.	.
=21	=21	=21
*	*^	*
8FF/L	2r	8aa-\L]	.
8GG/	.	16aa-\L	.
.	.	16gg\JJ	.
8AA-/	.	16ff\LL	.
.	.	16ee-\	.
8AAn/J)	.	16dd\	.
.	.	16cc\JJ	.
2BB-/	[2b-/	8r	>
.	.	16a-\LL	.
.	.	16g\JJ	.
.	.	16f\LL	.
.	.	16e-\	.
.	.	16d\	.
.	.	16c\JJ	.
=22	=22	=22	=22
*^	*	*	*
16BB-/LL	4BB-\	(8b-/L]	4B-\	p
(16C/	.	.	.	.
16D/	.	8an/	.	.
16E-/JJ	.	.	.	.
16F/LL	4BB-\	8a-/	4d\	.
16G/	.	.	.	.
16A-/	.	8f/J	.	.
16F/JJ	.	.	.	.
4G/)	4E-\	4e-/	4e-\)	.
8EE-'/	4r	8r	4r	.
8r	.	8B-/	.	pp
*v	*v	*	*	*
*	*v	*v	*
=23	=23	=23
2r	(4B-'/ 4g'/ 4b-'/	.
.	4B-'/) 4g'/ 4b-'/	.
16r	2B-/ 2e-/ 2g/	.
(16BB-\LL	.	.
16C\	.	.
16D\JJ	.	.
16E-\LL	.	.
16F\	.	.
16G\	.	.
16E-\JJ)	.	.
=24	=24	=24
8A-'\	(4B-'/ 4d'/ 4f'/	.
8r	.	.
4r	4B-'/) 4d'/ 4f'/	.
(16A-\LL	2B-/ 2f/ 2a-/ 2b-/	.
16G\	.	.
16F\	.	.
16E-\JJ	.	.
16D\LL	.	.
16C\	.	.
16BB-\	.	.
16D\JJ)	.	.
=25	=25	=25
8E-'\	(4B-'/ 4g'/ 4b-'/	.
8r	.	.
4r	4B-'/) 4g'/ 4b-'/	.
16r	2B-/ 2e-/ 2g/	.
(16BB-\LL	.	.
16C\	.	.
16D\JJ	.	.
16E-\LL	.	.
16F\	.	.
16G\	.	.
16E-\JJ)	.	.
=26	=26	=26
(16A-\LL	8B-/ 8d/ 8f/	.
16F\)	.	.
16D'\	4b-^/	.
16BB-'\JJ	.	.
16AA-'/LL	.	.
16FF'/	.	.
16DD'/	8A-/ 8b-/	.
16BBB-'/JJ	.	.
(4EE-/	4G/ 4e-/	.
8E-\)	8r	.
8r	8B-/	.
=27	=27	=27
2r	8B-/ 8g/ 8b-/L	pp
.	8B-/ 8g/ 8b-/	.
.	8B-/ 8g/ 8b-/	.
.	8B-/ 8g/ 8b-/J	.
16r	2B-/ 2e-/ 2g/	.
(16BB-\LL	.	.
16C\	.	.
16D\JJ	.	.
16E-\LL	.	.
16F\	.	.
16G\	.	.
16E-\JJ)	.	.
=28	=28	=28
8A-'\	8B-/ 8d/ 8f/L	.
8r	8B-/ 8d/ 8f/	.
4r	8B-/ 8d/ 8f/	.
.	8B-/ 8d/ 8f/J	.
(16A-\LL	2B-/ 2f/ 2a-/ 2b-/	.
16G\	.	.
16F\	.	.
16E-\JJ	.	.
16D\LL	.	.
16C\	.	.
16BB-\	.	.
16D\JJ)	.	.
=29	=29	=29
8E-'\	8B-/ 8g/ 8b-/L	.
8r	8B-/ 8g/ 8b-/	.
4r	8B-/ 8g/ 8b-/	.
.	8B-/ 8g/ 8b-/J	.
16r	2B-/ 2e-/ 2g/	.
(16BB-\LL	.	.
16C\	.	.
16D\JJ	.	.
16E-\LL	.	.
16F\	.	.
16G\	.	.
16E-\JJ)	.	.
=30	=30	=30
(16A-\LL	8B-/ 8d/ 8f/	.
16F\)	.	.
16D'\	4b-^/	.
16BB-'\JJ	.	.
16AA-'/LL	.	.
16FF'/	.	.
16DD'/	8A-/ 8b-/	.
16BBB-'/JJ	.	.
(4EE-/	4G/ 4e-/	.
8E-\)	4r	.
8r	.	.
=31	=31	=31
2r	8f/ 8a-/L	.
.	8f/ 8a-/	.
.	8f/ 8a-/	.
.	8f/ 8a-/J	.
16r	2f/ 2a-/ 2dd/	.
16BBB-'/LL	.	.
16BB-'/	.	.
16C'/JJ	.	.
16D'\LL	.	.
16E-'\	.	.
16F'\	.	.
16G'\JJ	.	.
=32	=32	=32
(8An\	8f\ 8dd\L	<
[4.B-\)	8f\ 8dd\	.
.	8f\ 8dd\	.
.	8f\ 8dd\J	.
16B-/LL]	2f\ 2a-\ 2dd\ 2ff\	.
16BBB-/	.	.
16BB-'/	.	.
16C'/JJ	.	.
16D'\LL	.	.
16E-'\	.	.
16F'\	.	.
16G'\JJ	.	.
=33	=33	=33
*	*^	*
(8An\	8f/ 8dd/ 8ff/L	2r	.
[4.B-\)	8f/ 8dd/ 8ff/	.	.
.	8f/ 8dd/ 8ff/	.	.
.	8f/ 8dd/ 8ff/J	.	.
8B-\L]	(4.aa-/	4dd\ 4ff\	.
(8Bn\	.	.	.
8c\	.	8ee-\L	.
8G\J	8gg/)	8bn\J	.
=34	=34	=34	=34
*^	*	*	*
4r	8A-\L	8gg/L	8cc\L	>
.	8An\)	8ff/	8cc\	.
4B-/	(8B-\	8ee-/	8g\	.
.	8BB-\J	8dd/J	8f\ 8a-\J	.
(8B-/L)	4.E-\	4ff/	4a-\	p
8d/	.	.	.	.
8e-/J)	.	8ee-/	8g\	.
8r	8r	8r	8r	.
*v	*v	*	*	*
*	*v	*v	*
=35	=35	=35
2r	(16g/LL	p
.	16a-/)	.
.	(16g/	.
.	16a-/JJ)	.
.	(16g/LL	.
.	16a-/)	.
.	(16g/	.
.	16a-/JJ)	.
16r	2f/ 2a-/ 2dd/	.
16BBB-/LL	.	.
16BB-'/	.	.
16C'/JJ	.	.
16D'\LL	.	.
16E-'\	.	.
16F'\	.	.
16G'\JJ	.	.
=36	=36	=36
(8An\	(16cc#\LL	<
.	16dd\)	.
[4.B-\)	(16cc#\	.
.	16dd\JJ)	.
.	(16cc#\LL	.
.	16dd\)	.
.	(16cc#\	.
.	16dd\JJ)	.
16B-/LL]	2f\ 2a-\ [2dd\ [2ff\	.
16BBB-'/	.	.
16BB-'/	.	.
16C'/JJ	.	.
16D'\LL	.	.
16E-'\	.	.
16F'\	.	.
16G'\JJ	.	.
=37	=37	=37
*	*^	*
(8An\	2r	16dd\] 16ff\LL]	.
.	.	16dd'\ 16ff'\	.
[4.B-\)	.	16cc#\ (16een\	.
.	.	16dd\ 16ff\JJ)	.
.	.	16cc#\ (16ee\LL	.
.	.	16dd\ 16ff\)	.
.	.	16cc#\ (16ee\	.
.	.	16dd\ 16ff\JJ)	.
8B-\L]	(4.aa-/	4dd\ 4ff\	.
(8Bn\	.	.	.
8c\	.	8ee-\L	.
8G\J	8gg/)	8bn\J	.
=38	=38	=38	=38
*^	*	*	*
4r	8A-\L	8gg/L	8ccn\L	>
.	8An\)	8ff/	8cc\	.
4B-/	(8B-\	8ee-/	8g\	.
.	8BB-\J	8dd/J	8f\ 8a-\J	.
(8B-/L)	4.E-\	4ff/	4a-\	p
8d/	.	.	.	.
8e-/J)	.	8ee-/	8g\	.
8r	8r	8r	8r	.
*v	*v	*	*	*
*	*v	*v	*
=39	=39	=39
*>E	*>E	*>E
*k[]	*k[]	*k[]
*M6/8	*M6/8	*M6/8
*MM120	*MM120	*MM120
8r	16G/LL	f
.	16F/JJ	.
=40	=40	=40
4CC\ 4EE\ 4GG\ 4C\	16E/LL	f
.	16G/	.
.	16c/	.
.	16G/	.
8r	16e/	.
.	16c/JJ	.
4r	16g\LL	.
.	16e\	.
.	16cc\	.
.	16g\	.
8r	16ee\	.
.	16cc\JJ	.
*clefG2	*	*
=41	=41	=41
8c/ 8e/ 8g/L	8gg'\L	p
8c/ 8e/ 8g/	8ee'\	.
8c/ 8e/ 8g/J	8cc'\J	.
4d/ 4f/ 4g/	4b'\	.
8r	16d/LL	f
.	16c/JJ	.
*clefF4	*	*
=42	=42	=42
4GG/ 4BB/ 4D/ 4G/	16B/LL	.
.	16d/	.
.	16g/	.
.	16d/	.
8r	16b/	.
.	16g/JJ	.
4r	16dd\LL	.
.	16b\	.
.	16gg\	.
.	16dd\	.
8r	16bb\	.
.	16gg\JJ	.
*clefG2	*	*
=43	=43	=43
8B/ 8d/ 8g/L	8ddd'\L	p
8B/ 8d/ 8g/	8bb'\	.
8B/ 8d/ 8g/J	8ff'\J	.
4c/ 4e/ 4g/	4ee'\	.
8r	16gg\LL	.
.	16ff\JJ	.
=44	=44	=44
8r	(16ee\LL	<
.	16gg\	.
16g/LL	16ee\	.
16f/	16dd\	.
16e/	16cc\	.
16g/JJ	16ee\JJ	.
16e/LL	16cc\LL	.
16d/	16b\	.
16c/	16a\	.
16e/	16cc\	.
16c/	16a\	.
16B/JJ	16g\JJ	.
*clefF4	*	*
=45	=45	=45
16A\LL	16f/LL	.
16c\	16a/	.
16A\	16f/	.
16G\	16e/	.
16F\	16d/	.
16A\JJ	16f/JJ	.
16F\LL	16d/LL	.
16E\	16c/	.
16D\	16B/	.
16F\	16d/	.
16D\	16B/	.
16C\JJ	16A/JJ)	p
=46	=46	=46
*^	*	*
16G#/LL	8BB\	2.r	.
16B/	.	.	.
16G#/	16r	.	.
16F/	16EE\LL	.	.
16E/	16FF#\	.	.
16D/JJ	16GG#\JJ	.	.
16C/LL	8AA\	.	.
16e/	.	.	.
16c/	16r	.	.
16B/	16AAA\LL	.	.
16A/	16BBB\	.	.
16Gn/JJ	16CC\JJ	.	.
=47	=47	=47	=47
16F#/LL	8DD\	4.r	.
16E/	.	.	.
16D/	16r	.	.
16C/	16DD\LL	.	.
16BB/	16EE\	.	.
16AA/JJ	16FF#\JJ	.	.
4GGn/	4GGGn\	4r	.
*v	*v	*	*
=:|!|:	=:|!|:	=:|!|:
*>F	*>F	*>F
*^	*	*
16D/LL	8r	8r	.
16C/JJ	.	.	.
=48	=48	=48	=48
16BB/LL	4r	4.r	.
16D/	.	.	.
16G/	.	.	.
16D/	.	.	.
16B/	8r	.	.
16G/JJ	.	.	.
4.r	4r	16d/LL	p
.	.	16B/	.
.	.	16g/	.
.	.	16d/J	.
.	8GGG/ 8BBB/ 8DD/ 8GG/	8b/J	.
=49	=49	=49	=49
16D/LL	4r	4.r	.
16Fn/	.	.	.
16B/	.	.	.
16F/	.	.	.
16d/	8r	.	.
16B/JJ	.	.	.
4.r	4r	16f/LL	.
.	.	16d/	.
.	.	16b/	.
.	.	16f/J	.
.	8GGG/ 8BBB/ 8DD/ 8GG/	8dd/J	.
*v	*v	*	*
=50	=50	=50
4r	16F/LL	.
.	16B/	.
.	16d/	.
.	16B/	.
8r	16f/	.
.	16d/JJ	.
4r	16b\LL	.
.	16f\	.
.	16dd\	.
.	16b\J	.
8GG\ 8BB\ 8D\ 8G\	8ff\J	.
=51	=51	=51
4r	16b\LL	.
.	16f\	.
.	16dd\	.
.	16b\J	.
8GG\ 8BB\ 8D\ 8G\	8ff\J	.
4r	16b\LL	.
.	16f\	.
.	16dd\	.
.	16b\J	.
8GG\ 8BB\ 8D\ 8G\	8ff\J	.
*clefG2	*	*
=52	=52	=52
8r	(16ee\LL	.
.	16gg\	.
16g/LL	16ee\	p
16f/	16dd\	.
16e/	16cc\	.
16g/JJ	16ee\JJ	<
16e/LL	16cc\LL	.
16d/	16b\	.
16c/	16a\	.
16e/	16cc\	.
16c/	16a\	.
16B/JJ	16g\JJ	.
*clefF4	*	*
=53	=53	=53
16A\LL	16f/LL	.
16c\	16a/	.
16A\	16f/	.
16G\	16e/	.
16F\	16d/	.
16A\JJ	16f/JJ	.
16F\LL	16d/LL	.
16E\	16c/	.
16D\	16B/	.
16C\	16A/	.
16BB\	16G/	.
16D\JJ	16F/JJ)	.
=54	=54	=54
8C\	16E/LL	p
.	16g/	.
16r	16e/	.
16CC/LL	16d/	.
16DD/	16c/	.
16EE/JJ	16B-/JJ	.
8FF/	16A/LL	.
.	16a/	.
16r	16f/	.
16DD/LL	16e/	.
16EE/	16d/	.
16FF/JJ	16c/JJ	.
=55	=55	=55
*^	*	*
16Bn/LL	8GG\	2.r	p
16A/	.	.	.
16G/	16r	.	.
16F/	16GGG\LL	.	.
16E/	16AAA\	.	.
16D/JJ	16BBB\JJ	.	.
4C/	4CC\	.	.
16D/LL	8r	.	.
16C/JJ	.	.	.
=56	=56	=56	=56
16BB/LL	4r	4.r	.
16D/	.	.	.
16G/	.	.	.
16D/	.	.	.
16B/	8r	.	.
16G/JJ	.	.	.
4.r	4r	16d/LL	.
.	.	16B/	.
.	.	16g/	.
.	.	16d/J	.
.	8GGG/ 8BBB/ 8DD/ 8GG/	8b/J	.
=57	=57	=57	=57
16D/LL	4r	4.r	.
16F/	.	.	.
16B/	.	.	.
16F/	.	.	.
16d/	8r	.	.
16B/JJ	.	.	.
4.r	4r	16f/LL	.
.	.	16d/	.
.	.	16b/	.
.	.	16f/J	.
.	8GGG/ 8BBB/ 8DD/ 8GG/	8dd/J	.
*v	*v	*	*
=58	=58	=58
4r	16F/LL	.
.	16B/	.
.	16d/	.
.	16B/	.
8r	16f/	.
.	16d/JJ	.
4r	16b\LL	.
.	16f\	.
.	16dd\	.
.	16b\J	.
8GG\ 8BB\ 8D\ 8G\	8ff\J	.
=59	=59	=59
4r	16b\LL	.
.	16f\	.
.	16dd\	.
.	16b\J	.
8GG\ 8BB\ 8D\ 8G\	8ff\J	.
4r	16b\LL	.
.	16f\	.
.	16dd\	.
.	16b\J	.
8GG\ 8BB\ 8D\ 8G\	8ff\J	.
=60	=60	=60
8r	(16ee-\LL	p
.	16gg\	.
*clefG2	*	*
(16g/LL	16ee-\	.
16f/	16dd\	.
16e-/	16cc\	.
16g/JJ	16ee-\JJ	.
16e-/LL	16cc\LL	.
16d/	16b-\	.
16c/	16a-\	.
16e-/	16cc\	.
16c/)	16a-\	.
16B-/JJ	16g\JJ)	.
*clefF4	*	*
=61	=61	=61
16A-\LL	(16f/LL	.
16c\	16a-/	.
16A-\	16f/	.
16G\	16e-/	.
16F\	16d/	.
16A-\JJ	16f/JJ	.
16F\LL	16d/LL	.
16E-\	16c/	.
16D\	16B-/	.
16F\	16a-/	.
16D\	16f/	.
16C\JJ	16e-/JJ	.
=62	=62	=62
16BB-\LL	16d/LL	<
16A-\	16f/	.
16F\	16d/	.
16E-\	16c/	.
16D\	16B-/	.
16F\JJ	16a-/JJ	.
16D\LL	16f/LL	.
16C\	16e-/	.
16BB-\	16d/	.
16F\	16a-/	.
16D\	16f/	.
16C\JJ	16e-/JJ	.
=63	=63	=63
16BB-\LL	16d/LL	.
16F\	16a-/	.
16D\	16f/	.
16C\	16e-/	.
16BB-\	16d/	.
16F\JJ	16a-/JJ	.
16D\LL	16f/LL	.
16C\	16e-/	.
16BB-\	16d/	.
16F\	16a-/	.
16D\	16f/	.
16C\JJ	16e-/JJ)	.
=64	=64	=64
(16BB-\LL	(16d/LL	f
16C\	16e-/	.
16D\	16f/	.
16E-\	16g/	.
16F\	16a-/	.
16G\JJ	16b-/JJ	.
16A-\LL	16cc\LL	.
16B-\	16dd\	.
16c\	16ee-\	.
16c#\	16een\	.
16d\	16ff\	.
16e-\JJ)	16gg\JJ)	.
=65	=65	=65
2.B-;\ 2.f;\	2.dd;\ 2.aa-;\	.
=66	=66	=66
*k[b-e-a-]	*k[b-e-a-]	*k[b-e-a-]
*M4/4	*M4/4	*M4/4
*MM100	*MM100	*MM100
2r	(4B-'/ 4g'/ 4b-'/	pp
.	4B-'/) 4g'/ 4b-'/	.
16r	2B-/ 2e-/ 2g/	.
(16BB-\LL	.	.
16C\	.	.
16D\JJ	.	.
16E-\LL	.	.
16F\	.	.
16G\	.	.
16E-\JJ)	.	.
=67	=67	=67
8A-'\	(4B-'/ 4d'/ 4f'/	.
8r	.	.
4r	4B-'/) 4d'/ 4f'/	.
(16A-\LL	2B-/ 2f/ 2a-/ 2b-/	.
16G\	.	.
16F\	.	.
16E-\JJ	.	.
16D\LL	.	.
16C\	.	.
16BB-\	.	.
16D\JJ)	.	.
=68	=68	=68
8E-'\	(4B-'/ 4g'/ 4b-'/	.
8r	.	.
4r	4B-'/) 4g'/ 4b-'/	.
16r	2B-/ 2e-/ 2g/	.
(16BB-\LL	.	.
16C\	.	.
16D\JJ	.	.
16E-\LL	.	.
16F\	.	.
16G\	.	.
16E-\JJ)	.	.
=69	=69	=69
(16A-\LL	8B-/ 8d/ 8f/	.
16F\)	.	.
16D'\	4b-^/	.
16BB-'\JJ	.	.
16AA-'/LL	.	.
16FF'/	.	.
16DD'/	8A-/ 8b-/	.
16BBB-'/JJ	.	.
(4EE-/	4G/ 4e-/	.
8E-\)	4r	.
8r	.	.
=70	=70	=70
4BB-'\ 4G'\ (4B-'\	2r	pp
4BB-'\ 4G'\ 4B-'\)	.	.
2BB-\ 2E-\ 2G\	16r	.
.	(16b-\LL	pp
.	16cc\	.
.	16dd\JJ	.
.	16ee-\LL	.
.	16ff\	.
.	16gg\	.
.	16ee-\JJ)	.
=71	=71	=71
4BB-'\ 4D'\ (4F'\	8aa-'\	.
.	8r	.
4BB-'\ 4D'\ 4F'\)	4r	.
2BB-\ 2F\ 2A-\ 2B-\	(16aa-\LL	.
.	16gg\	.
.	16ff\	.
.	16ee-\JJ	.
.	16dd\LL	.
.	16cc\	.
.	16b-\	.
.	16dd\JJ)	.
=72	=72	=72
4BB-'\ 4G'\ (4B-'\	8ee-'\	.
.	8r	.
4BB-'\ 4G'\ 4B-'\)	4r	.
2BB-\ 2E-\ 2G\	16r	.
.	(16b-\LL	.
.	16cc\	.
.	16dd\JJ	.
.	16ee-\LL	.
.	16ff\	.
.	16gg\	.
.	16ee-\JJ)	.
=73	=73	=73
8BB-\ 8D\ 8F\	(16aa-\LL	.
.	16ff\)	.
4B-^\	16dd'\	.
.	16b-'\JJ	.
.	16a-'/LL	.
.	16f/	.
8AA-\ 8B-\	16d'/	.
.	16B-'/JJ	.
8GG/ 8E-/	8e-/	.
8r	8r	.
4r	4r	.
=74	=74	=74
2r	(4f'/ 4a-'/	pp
.	4f'/) 4a-'/	.
16r	2f/ 2a-/ 2dd/	.
16BBB-'/LL	.	.
16BB-'/	.	.
16C'/JJ	.	.
16D'\LL	.	.
16E-'\	.	.
16F'\	.	.
16G'\JJ	.	.
=75	=75	=75
(8An\	(4f'/ 4dd'/	<
[4.B-\)	.	.
.	4f'/) 4dd'/	.
16B-/LL]	2f/ 2a-/ 2dd/ 2ff/	.
16BBB-'/	.	.
16BB-'/	.	.
16C'/JJ	.	.
16D'\LL	.	.
16E-'\	.	.
16F'\	.	.
16G'\JJ	.	.
=76	=76	=76
*	*^	*
(8An\	2r	(4f'/ 4dd'/ 4ff'/	.
[4.B-\)	.	.	.
.	.	4f'/) 4dd'/ 4ff'/	.
(8B-\L]	4dd\ 4ff\	(4.aa-/	.
8Bn\	.	.	.
8c\	8ee-\L	.	.
8G\J)	8bn\J	8gg/)	.
=77	=77	=77	=77
*^	*	*	*
4r	(8A-\L	8gg/L	8cc\L	>
.	8An\)	8ff/	8cc\	.
4B-/	(8B-\	8ee-/	8g\	.
.	8BB-\J	8dd/J	8f\ 8a-\J	p
(8B-/L)	4.E-\	(4ff/	4a-\	.
8d/	.	.	.	.
8e-/J)	.	8ee-/)	8g\	.
8r	8r	8r	8r	.
*v	*v	*	*	*
*	*v	*v	*
=78	=78	=78
4F'\ (4A-'\	2r	pp
4F'\ 4A-'\)	.	.
2F\ 2A-\ 2d\	8r	.
.	16b-'\LL	.
.	16cc'\JJ	.
.	16dd'\LL	.
.	16ee-'\	.
.	16ff'\	.
.	16gg'\JJ	.
=79	=79	=79
4F'\ (4d'\	(8aan'\	<
.	[4.bb-\)	.
4F'\ 4d'\)	.	.
2A-\ 2d\ 2f\	8bb-\]	.
.	16b-'\LL	.
.	16cc'\JJ	.
.	16dd'\LL	.
.	16ee-'\	.
.	16ff'\	.
.	16gg'\JJ	.
*clefG2	*	*
=80	=80	=80
*^	*	*
4d'/ 4f'/	2r	(8aan'\	.
.	.	[4.bb-\)	.
4d'/ 4f'/	.	.	.
4.a-/	4d\ 4f\	(8bb-\L]	.
.	.	8bbn\)	.
.	8e-\L	(8ccc\	.
8g/	8Bn\J	8ddd\J	.
*v	*v	*	*
=81	=81	=81
8c/ 8g/L	8eee-\L	>
8An/ 8f/	8ccc\	.
8B-/ 8e-/	8gg\	.
8B-/ 8d/J	([8aa-\J)	.
*clefF4	*	*
4B-\ (4f\	8aa-\L]	p
.	8dd\	.
8E-\ 8e-\)	8ee-\J)	.
8r	8e-/	.
=82	=82	=82
2r	4g'\ 4b-'\ (4dd-'\	pp
.	4g'\ 4b-'\ 4dd-'\)	.
(4E-\	2r	.
4EE-/)	.	.
=83	=83	=83
2r	(4e-'/ 4a-'/ 4cc'/	.
.	4e-'/) 4a-'/ 4cc'/	.
(4E-\	2r	.
4EE-/)	.	.
=84	=84	=84
2r	(4d'/ 4f'/ 4a-'/	.
.	4d'/) 4f'/ 4a-'/	.
(4E-\	2r	.
4EE-/)	.	.
=85	=85	=85
4r	(4B-'/ 4e-'/ 4g'/	<
(8E-/L	4r	.
8EE-/J)	.	.
4r	4d'/) 4f'/ 4a-'/	.
(8E-/L	4r	.
8EE-/J)	.	.
=86	=86	=86
4r	(4B-'/ 4e-'/ 4g'/	>
(8E-/L	4r	.
8EE-/J)	.	.
4r	4d'/) 4f'/ 4a-'/	.
(8E-/L	4r	.
8EE-/J)	.	.
=87	=87	=87
4r	4B-/ 4e-/ 4g/	>
(8E-/L	4r	.
8EE-/J)	.	.
2r	2r	.
=88	=88	=88
4r	4G/ 4B-/ 4e-/ 4g/	.
(8E-/L	4r	.
8EE-/J)	.	.
2r	2r	.
=89	=89	=89
2r	1gg; 1bb-; 1eee-;	pp
2EE-;/	.	.
=	=	=
*-	*-	*-
!!!ENC: Craig Stuart Sapp
!!!END: 2008/02/11/
